;FLAVOR:Marlin
;TIME:2301
;Filament used: 3.33328m
;Layer height: 0.3
;MINX:57.8
;MINY:68.419
;MINZ:0.3
;MAXX:152.2
;MAXY:132.546
;MAXZ:16.8
;Generated with Cura_SteamEngine 4.3.0
M140 S60
M105
M190 S60
M104 S200
M105
M109 S200
M82 ;absolute extrusion mode
G21 ;metric values
G90 ;absolute positioning
M82 ;set extruder to absolute mode
M107 ;start with the fan off
G28 X0 Y0 ;move X/Y to min endstops
G28 Z0 ;move Z to min endstops
G1 Z15.0 F100 ;move the platform down 15mm
G92 E0 ;zero the extruded length
G1 F200 E3 ;extrude 3mm of feed stock
G92 E0 ;zero the extruded length again
G1 F100
M117 Printing...
G5
G92 E0
G92 E0
G1 F2400 E-6
;LAYER_COUNT:56
;LAYER:0
M106 S255
M204 S3000
M205 X10 Y10
G1 F600 Z0.375
G0 F3000 X59.16 Y69.525 Z0.375
M204 S1800
M205 X8 Y8
;TYPE:SKIRT
G1 F600 Z0.3
G1 F2400 E0
G1 X59.613 Y69.163 E0.0405
G1 X60.111 Y68.868 E0.08093
G1 X60.645 Y68.643 E0.1214
G1 X61.205 Y68.495 E0.16186
G1 X62 Y68.419 E0.21764
G1 X148 Y68.419 E6.22442
G1 X148.578 Y68.459 E6.26489
G1 X149.145 Y68.578 E6.30536
G1 X149.69 Y68.774 E6.34581
G1 X150.203 Y69.043 E6.38627
G1 X150.674 Y69.38 E6.42672
G1 X151.094 Y69.779 E6.46718
G1 X151.456 Y70.232 E6.50768
G1 X151.751 Y70.73 E6.54811
G1 X151.976 Y71.264 E6.58858
G1 X152.124 Y71.824 E6.62904
G1 X152.2 Y72.619 E6.68482
G1 X152.2 Y128.346 E10.57715
G1 X152.16 Y128.924 E10.61761
G1 X152.041 Y129.491 E10.65808
G1 X151.845 Y130.036 E10.69853
G1 X151.576 Y130.549 E10.73899
G1 X151.239 Y131.02 E10.77944
G1 X150.84 Y131.44 E10.8199
G1 X150.387 Y131.802 E10.86041
G1 X149.889 Y132.097 E10.90084
G1 X149.355 Y132.322 E10.94131
G1 X148.795 Y132.47 E10.98177
G1 X148 Y132.546 E11.03755
G1 X62 Y132.546 E17.04433
G1 X61.422 Y132.506 E17.08479
G1 X60.855 Y132.387 E17.12526
G1 X60.31 Y132.191 E17.16571
G1 X59.797 Y131.922 E17.20617
G1 X59.326 Y131.585 E17.24662
G1 X58.906 Y131.186 E17.28709
G1 X58.544 Y130.733 E17.32759
G1 X58.249 Y130.235 E17.36802
G1 X58.024 Y129.701 E17.40849
G1 X57.876 Y129.141 E17.44895
G1 X57.8 Y128.346 E17.50473
G1 X57.8 Y72.619 E21.39705
G1 X57.84 Y72.041 E21.43752
G1 X57.959 Y71.474 E21.47798
G1 X58.155 Y70.929 E21.51844
G1 X58.424 Y70.416 E21.5589
G1 X58.761 Y69.945 E21.59935
G1 X59.16 Y69.525 E21.63981
M204 S3000
M205 X10 Y10
G0 F3000 X59.708 Y69.791
M204 S1800
M205 X8 Y8
G1 F2400 X60.151 Y69.484 E21.67746
G1 X60.635 Y69.245 E21.71516
G1 X61.148 Y69.08 E21.7528
G1 X61.68 Y68.993 E21.79045
G1 X62 Y68.979 E21.81282
G1 X148 Y68.979 E27.8196
G1 X148.538 Y69.019 E27.85728
G1 X149.064 Y69.138 E27.89495
G1 X149.566 Y69.333 E27.93257
G1 X150.035 Y69.601 E27.97029
G1 X150.458 Y69.934 E28.0079
G1 X150.828 Y70.327 E28.0456
G1 X151.135 Y70.77 E28.08324
G1 X151.374 Y71.254 E28.12094
G1 X151.539 Y71.767 E28.15858
G1 X151.626 Y72.299 E28.19624
G1 X151.64 Y72.619 E28.21861
G1 X151.64 Y128.346 E32.11093
G1 X151.6 Y128.884 E32.14861
G1 X151.481 Y129.41 E32.18628
G1 X151.286 Y129.912 E32.2239
G1 X151.018 Y130.381 E32.26162
G1 X150.685 Y130.804 E32.29923
G1 X150.292 Y131.174 E32.33693
G1 X149.849 Y131.481 E32.37457
G1 X149.365 Y131.72 E32.41227
G1 X148.852 Y131.885 E32.44991
G1 X148.32 Y131.972 E32.48757
G1 X148 Y131.986 E32.50994
G1 X62 Y131.986 E38.51672
G1 X61.462 Y131.946 E38.5544
G1 X60.936 Y131.827 E38.59207
G1 X60.434 Y131.632 E38.62968
G1 X59.965 Y131.364 E38.66741
G1 X59.542 Y131.031 E38.70501
G1 X59.172 Y130.638 E38.74271
G1 X58.865 Y130.195 E38.78036
G1 X58.626 Y129.711 E38.81806
G1 X58.461 Y129.198 E38.8557
G1 X58.374 Y128.666 E38.89335
G1 X58.36 Y128.346 E38.91572
G1 X58.36 Y72.619 E42.80805
G1 X58.4 Y72.081 E42.84573
G1 X58.519 Y71.555 E42.8834
G1 X58.714 Y71.053 E42.92101
G1 X58.982 Y70.584 E42.95874
G1 X59.315 Y70.161 E42.99634
G1 X59.708 Y69.791 E43.03404
M204 S3000
M205 X10 Y10
G0 F3000 X59.868 Y70.397
M204 S1800
M205 X8 Y8
G1 F2400 X60.252 Y70.083 E43.06869
G1 X60.682 Y69.835 E43.10336
G1 X61.145 Y69.66 E43.13793
G1 X61.632 Y69.561 E43.17264
G1 X62 Y69.539 E43.19839
G1 X148 Y69.539 E49.20517
G1 X148.494 Y69.579 E49.23979
G1 X148.976 Y69.698 E49.27447
G1 X149.432 Y69.892 E49.30908
G1 X149.851 Y70.157 E49.34371
G1 X150.222 Y70.487 E49.37839
G1 X150.536 Y70.871 E49.41303
G1 X150.784 Y71.301 E49.4477
G1 X150.959 Y71.764 E49.48228
G1 X151.058 Y72.251 E49.51699
G1 X151.08 Y72.619 E49.54274
G1 X151.08 Y128.346 E53.43506
G1 X151.04 Y128.84 E53.46968
G1 X150.921 Y129.322 E53.50435
G1 X150.727 Y129.778 E53.53897
G1 X150.462 Y130.197 E53.57359
G1 X150.132 Y130.568 E53.60828
G1 X149.748 Y130.882 E53.64292
G1 X149.318 Y131.13 E53.67759
G1 X148.855 Y131.305 E53.71216
G1 X148.368 Y131.404 E53.74688
G1 X148 Y131.426 E53.77262
G1 X62 Y131.426 E59.7794
G1 X61.506 Y131.386 E59.81402
G1 X61.024 Y131.267 E59.8487
G1 X60.568 Y131.073 E59.88331
G1 X60.149 Y130.808 E59.91794
G1 X59.778 Y130.478 E59.95262
G1 X59.464 Y130.094 E59.98727
G1 X59.216 Y129.664 E60.02194
G1 X59.041 Y129.201 E60.05651
G1 X58.942 Y128.714 E60.09122
G1 X58.92 Y128.346 E60.11697
G1 X58.92 Y72.619 E64.00929
G1 X58.96 Y72.125 E64.04391
G1 X59.079 Y71.643 E64.07859
G1 X59.273 Y71.187 E64.1132
G1 X59.538 Y70.768 E64.14783
G1 X59.868 Y70.397 E64.18251
M204 S3000
M205 X10 Y10
G0 F3000 X60.416 Y70.659
M204 S1800
M205 X8 Y8
G1 F2400 X60.789 Y70.409 E64.21387
G1 X61.2 Y70.229 E64.24521
G1 X61.636 Y70.125 E64.27652
G1 X62 Y70.099 E64.30201
G1 X148 Y70.099 E70.30879
G1 X148.447 Y70.139 E70.34013
G1 X148.879 Y70.257 E70.37141
G1 X149.284 Y70.451 E70.40278
G1 X149.648 Y70.713 E70.4341
G1 X149.96 Y71.035 E70.46542
G1 X150.21 Y71.408 E70.49678
G1 X150.39 Y71.819 E70.52812
G1 X150.494 Y72.255 E70.55943
G1 X150.52 Y72.619 E70.58492
G1 X150.52 Y128.346 E74.47724
G1 X150.48 Y128.793 E74.50859
G1 X150.362 Y129.225 E74.53987
G1 X150.168 Y129.63 E74.57123
G1 X149.906 Y129.994 E74.60256
G1 X149.584 Y130.306 E74.63387
G1 X149.211 Y130.556 E74.66524
G1 X148.8 Y130.736 E74.69657
G1 X148.364 Y130.84 E74.72788
G1 X148 Y130.866 E74.75337
G1 X62 Y130.866 E80.76015
G1 X61.553 Y130.826 E80.7915
G1 X61.121 Y130.708 E80.82278
G1 X60.716 Y130.514 E80.85414
G1 X60.352 Y130.252 E80.88547
G1 X60.04 Y129.93 E80.91678
G1 X59.79 Y129.557 E80.94815
G1 X59.61 Y129.146 E80.97949
G1 X59.506 Y128.71 E81.01079
G1 X59.48 Y128.346 E81.03628
G1 X59.48 Y72.619 E84.92861
G1 X59.52 Y72.172 E84.95995
G1 X59.638 Y71.74 E84.99123
G1 X59.832 Y71.335 E85.0226
G1 X60.094 Y70.971 E85.05392
G1 X60.416 Y70.659 E85.08524
M204 S3000
M205 X10 Y10
G0 F3000 X60.646 Y71.201
M204 S1800
M205 X8 Y8
G1 F2400 X60.959 Y70.959 E85.11287
G1 X61.313 Y70.783 E85.14049
G1 X61.696 Y70.683 E85.16813
G1 X62 Y70.659 E85.18943
G1 X148 Y70.659 E91.19621
G1 X148.393 Y70.699 E91.2238
G1 X148.771 Y70.817 E91.25146
G1 X149.117 Y71.008 E91.27907
G1 X149.418 Y71.265 E91.30671
G1 X149.66 Y71.578 E91.33435
G1 X149.836 Y71.932 E91.36196
G1 X149.936 Y72.315 E91.38961
G1 X149.96 Y72.619 E91.41091
G1 X149.96 Y128.346 E95.30323
G1 X149.92 Y128.739 E95.33082
G1 X149.802 Y129.117 E95.35848
G1 X149.611 Y129.463 E95.38608
G1 X149.354 Y129.764 E95.41373
G1 X149.041 Y130.006 E95.44136
G1 X148.687 Y130.182 E95.46898
G1 X148.304 Y130.282 E95.49662
G1 X148 Y130.306 E95.51792
G1 X62 Y130.306 E101.5247
G1 X61.607 Y130.266 E101.55229
G1 X61.229 Y130.148 E101.57995
G1 X60.883 Y129.957 E101.60756
G1 X60.582 Y129.7 E101.6352
G1 X60.34 Y129.387 E101.66284
G1 X60.164 Y129.033 E101.69045
G1 X60.064 Y128.65 E101.7181
G1 X60.04 Y128.346 E101.7394
G1 X60.04 Y72.619 E105.63172
G1 X60.08 Y72.226 E105.65931
G1 X60.198 Y71.848 E105.68697
G1 X60.389 Y71.502 E105.71457
G1 X60.646 Y71.201 E105.74222
M204 S3000
M205 X10 Y10
G0 F3000 X60.945 Y71.698
M204 S1800
M205 X8 Y8
G1 F2400 X61.193 Y71.475 E105.76551
G1 X61.487 Y71.316 E105.78886
G1 X61.811 Y71.232 E105.81224
G1 X62 Y71.219 E105.82547
G1 X148 Y71.219 E111.83225
G1 X148.332 Y71.259 E111.85561
G1 X148.644 Y71.376 E111.87888
G1 X148.921 Y71.564 E111.90226
G1 X149.144 Y71.812 E111.92556
G1 X149.303 Y72.106 E111.9489
G1 X149.387 Y72.43 E111.97228
G1 X149.4 Y72.619 E111.98551
G1 X149.4 Y128.346 E115.87784
G1 X149.36 Y128.678 E115.90119
G1 X149.243 Y128.99 E115.92447
G1 X149.055 Y129.267 E115.94785
G1 X148.807 Y129.49 E115.97115
G1 X148.513 Y129.649 E115.99449
G1 X148.189 Y129.733 E116.01787
G1 X148 Y129.746 E116.0311
G1 X62 Y129.746 E122.03788
G1 X61.668 Y129.706 E122.06124
G1 X61.356 Y129.589 E122.08451
G1 X61.079 Y129.401 E122.1079
G1 X60.856 Y129.153 E122.13119
G1 X60.697 Y128.859 E122.15454
G1 X60.613 Y128.535 E122.17791
G1 X60.6 Y128.346 E122.19115
G1 X60.6 Y72.619 E126.08347
G1 X60.64 Y72.287 E126.10683
G1 X60.757 Y71.975 E126.1301
G1 X60.945 Y71.698 E126.15348
M204 S3000
M205 X10 Y10
G0 F3000 X61.496 Y71.947
M204 S1800
M205 X8 Y8
G1 F2400 X61.724 Y71.826 E126.17151
G1 X62 Y71.779 E126.19107
G1 X148 Y71.779 E132.19785
G1 X148.255 Y71.819 E132.21588
G1 X148.487 Y71.934 E132.23396
G1 X148.672 Y72.115 E132.25204
G1 X148.793 Y72.343 E132.27007
G1 X148.84 Y72.619 E132.28962
G1 X148.84 Y128.346 E136.18195
G1 X148.8 Y128.601 E136.19998
G1 X148.685 Y128.833 E136.21806
G1 X148.504 Y129.018 E136.23614
G1 X148.276 Y129.139 E136.25417
G1 X148 Y129.186 E136.27372
G1 X62 Y129.186 E142.2805
G1 X61.745 Y129.146 E142.29853
G1 X61.513 Y129.031 E142.31662
G1 X61.328 Y128.85 E142.3347
G1 X61.207 Y128.622 E142.35272
G1 X61.16 Y128.346 E142.37228
G1 X61.16 Y72.619 E146.2646
G1 X61.2 Y72.364 E146.28263
G1 X61.315 Y72.132 E146.30072
G1 X61.496 Y71.947 E146.31879
M204 S3000
M205 X10 Y10
G0 F3000 X61.866 Y72.373
M204 S1800
M205 X8 Y8
G1 F2400 X62 Y72.339 E146.32845
G1 X148 Y72.339 E152.33523
G1 X148.143 Y72.378 E152.34558
G1 X148.246 Y72.485 E152.35596
G1 X148.28 Y72.619 E152.36561
G1 X148.28 Y128.346 E156.25794
G1 X148.241 Y128.489 E156.26829
G1 X148.134 Y128.592 E156.27866
G1 X148 Y128.626 E156.28832
G1 X62 Y128.626 E162.2951
G1 X61.857 Y128.587 E162.30545
G1 X61.754 Y128.48 E162.31583
G1 X61.72 Y128.346 E162.32548
G1 X61.72 Y72.619 E166.21781
G1 X61.759 Y72.476 E166.22816
G1 X61.866 Y72.373 E166.23853
M204 S3000
M205 X10 Y10
G1 F2400 E160.23853
;MESH:screen_005.stl
G0 F3000 X62.854 Y73.473
G0 X83.553 Y82.974
G0 X84.213 Y82.976
M204 S1800
M205 X8 Y8
;TYPE:WALL-OUTER
G1 F2400 E166.23853
G1 F1800 X84.202 Y88.495 E166.62401
G1 X84.202 Y112.496 E168.3004
G1 X84.213 Y118.014 E168.68581
G1 X89.873 Y118.025 E169.08114
G1 X94.776 Y118.024 E169.42359
G1 X120.589 Y118.025 E171.22654
G1 X126.25 Y118.014 E171.62194
G1 X126.261 Y112.497 E172.00728
G1 X126.261 Y88.496 E173.68366
G1 X126.25 Y82.977 E174.06914
G1 X120.59 Y82.966 E174.46447
G1 X89.874 Y82.966 E176.60987
G1 X84.213 Y82.976 E177.00527
M204 S3000
M205 X10 Y10
G0 F3000 X84.213 Y83.176
G0 X83.553 Y83.174
G0 X62.91 Y127.436
G0 X62.28 Y128.066
M204 S1800
M205 X8 Y8
G1 F1800 X62.28 Y72.899 E180.85848
G1 X147.72 Y72.899 E186.82615
G1 X147.72 Y128.066 E190.67936
G1 X62.28 Y128.066 E196.64703
M204 S3000
M205 X10 Y10
G0 F3000 X62.28 Y127.866
G0 X62.84 Y127.506
M204 S1800
M205 X8 Y8
;TYPE:WALL-INNER
G1 F1800 X62.84 Y73.459 E200.42201
G1 X147.16 Y73.459 E206.31145
G1 X147.16 Y127.506 E210.08643
G1 X62.84 Y127.506 E215.97587
M204 S3000
M205 X10 Y10
G0 F3000 X62.91 Y127.436
G0 X83.584 Y82.346
G0 X83.654 Y82.416
M204 S1800
M205 X8 Y8
G1 F1800 X83.642 Y88.494 E216.40039
G1 X83.642 Y112.497 E218.07691
G1 X83.654 Y118.573 E218.5013
G1 X89.873 Y118.585 E218.93568
G1 X94.776 Y118.584 E219.27813
G1 X120.589 Y118.585 E221.08107
G1 X126.809 Y118.574 E221.51552
G1 X126.821 Y112.498 E221.93991
G1 X126.821 Y88.495 E223.61643
G1 X126.809 Y82.418 E224.04088
G1 X120.591 Y82.406 E224.47519
G1 X89.874 Y82.406 E226.62066
G1 X83.654 Y82.416 E227.0551
M204 S3000
M205 X10 Y10
G0 F3000 X83.095 Y81.856
M204 S1800
M205 X8 Y8
G1 F1800 X83.082 Y88.493 E227.51867
G1 X83.082 Y112.498 E229.19533
G1 X83.095 Y119.132 E229.65869
G1 X89.873 Y119.145 E230.13211
G1 X94.776 Y119.144 E230.47457
G1 X120.589 Y119.145 E232.27751
G1 X127.368 Y119.134 E232.751
G1 X127.381 Y112.499 E233.21443
G1 X127.381 Y88.494 E234.89109
G1 X127.368 Y81.859 E235.35452
G1 X120.592 Y81.846 E235.8278
G1 X89.874 Y81.846 E237.97334
G1 X83.095 Y81.856 E238.44683
M204 S3000
M205 X10 Y10
G0 F3000 X63.4 Y126.946
M204 S1800
M205 X8 Y8
G1 F1800 X63.4 Y74.019 E242.14358
G1 X146.6 Y74.019 E247.95479
G1 X146.6 Y126.946 E251.65155
G1 X63.4 Y126.946 E257.46276
M204 S3000
M205 X10 Y10
G0 F3000 X63.95 Y126.396
M204 S1800
M205 X8 Y8
;TYPE:SKIN
G1 F1800 X63.95 Y74.569 E261.08268
G1 X146.05 Y74.569 E266.81706
G1 X146.05 Y126.396 E270.43698
G1 X63.95 Y126.396 E276.17136
M204 S3000
M205 X10 Y10
G0 F3000 X82.547 Y119.68
M204 S1800
M205 X8 Y8
G1 F1800 X89.871 Y119.695 E276.68292
G1 X94.774 Y119.694 E277.02537
G1 X120.587 Y119.695 E278.82832
G1 X127.916 Y119.686 E279.34022
G1 X127.931 Y112.501 E279.84207
G1 X127.931 Y88.494 E281.51887
G1 X127.916 Y81.311 E282.02057
G1 X120.594 Y81.296 E282.53199
G1 X89.874 Y81.296 E284.67767
G1 X82.547 Y81.306 E285.18943
G1 X82.532 Y88.491 E285.69128
G1 X82.532 Y112.498 E287.36808
G1 X82.547 Y119.68 E287.86971
M204 S3000
M205 X10 Y10
G0 F3000 X64.362 Y126.135
M204 S1800
M205 X8 Y8
G1 F1800 X64.209 Y125.982 E287.88483
M204 S3000
M205 X10 Y10
G0 F3000 X64.209 Y125.19
M204 S1800
M205 X8 Y8
G1 F1800 X65.154 Y126.135 E287.97817
M204 S3000
M205 X10 Y10
G0 F3000 X65.946 Y126.135
M204 S1800
M205 X8 Y8
G1 F1800 X64.209 Y124.398 E288.14975
M204 S3000
M205 X10 Y10
G0 F3000 X64.209 Y123.606
M204 S1800
M205 X8 Y8
G1 F1800 X66.738 Y126.135 E288.39956
M204 S3000
M205 X10 Y10
G0 F3000 X67.53 Y126.135
M204 S1800
M205 X8 Y8
G1 F1800 X64.209 Y122.814 E288.7276
M204 S3000
M205 X10 Y10
G0 F3000 X64.209 Y122.022
M204 S1800
M205 X8 Y8
G1 F1800 X68.322 Y126.135 E289.13387
M204 S3000
M205 X10 Y10
G0 F3000 X69.114 Y126.135
M204 S1800
M205 X8 Y8
G1 F1800 X64.209 Y121.23 E289.61837
M204 S3000
M205 X10 Y10
G0 F3000 X64.209 Y120.438
M204 S1800
M205 X8 Y8
G1 F1800 X69.905 Y126.135 E290.18106
M204 S3000
M205 X10 Y10
G0 F3000 X70.697 Y126.135
M204 S1800
M205 X8 Y8
G1 F1800 X64.209 Y119.646 E290.82198
M204 S3000
M205 X10 Y10
G0 F3000 X64.209 Y118.854
M204 S1800
M205 X8 Y8
G1 F1800 X71.489 Y126.135 E291.54113
M204 S3000
M205 X10 Y10
G0 F3000 X72.281 Y126.135
M204 S1800
M205 X8 Y8
G1 F1800 X64.209 Y118.062 E292.33851
M204 S3000
M205 X10 Y10
G0 F3000 X64.209 Y117.27
M204 S1800
M205 X8 Y8
G1 F1800 X73.073 Y126.135 E293.21412
M204 S3000
M205 X10 Y10
G0 F3000 X73.865 Y126.135
M204 S1800
M205 X8 Y8
G1 F1800 X64.209 Y116.478 E294.16797
M204 S3000
M205 X10 Y10
G0 F3000 X64.209 Y115.686
M204 S1800
M205 X8 Y8
G1 F1800 X74.657 Y126.135 E295.20005
M204 S3000
M205 X10 Y10
G0 F3000 X75.449 Y126.135
M204 S1800
M205 X8 Y8
G1 F1800 X64.209 Y114.894 E296.31036
M204 S3000
M205 X10 Y10
G0 F3000 X64.209 Y114.102
M204 S1800
M205 X8 Y8
G1 F1800 X76.241 Y126.135 E297.4989
M204 S3000
M205 X10 Y10
G0 F3000 X77.033 Y126.135
M204 S1800
M205 X8 Y8
G1 F1800 X64.209 Y113.311 E298.76562
M204 S3000
M205 X10 Y10
G0 F3000 X64.209 Y112.519
M204 S1800
M205 X8 Y8
G1 F1800 X77.825 Y126.135 E300.11058
M204 S3000
M205 X10 Y10
G0 F3000 X78.617 Y126.135
M204 S1800
M205 X8 Y8
G1 F1800 X64.209 Y111.727 E301.53376
M204 S3000
M205 X10 Y10
G0 F3000 X64.209 Y110.935
M204 S1800
M205 X8 Y8
G1 F1800 X79.409 Y126.135 E303.03518
M204 S3000
M205 X10 Y10
G0 F3000 X80.201 Y126.135
M204 S1800
M205 X8 Y8
G1 F1800 X64.209 Y110.143 E304.61483
M204 S3000
M205 X10 Y10
G0 F3000 X64.209 Y109.351
M204 S1800
M205 X8 Y8
G1 F1800 X80.993 Y126.135 E306.27272
M204 S3000
M205 X10 Y10
G0 F3000 X81.785 Y126.135
M204 S1800
M205 X8 Y8
G1 F1800 X64.209 Y108.559 E308.00883
M204 S3000
M205 X10 Y10
G0 F3000 X64.209 Y107.767
M204 S1800
M205 X8 Y8
G1 F1800 X82.577 Y126.135 E309.82318
M204 S3000
M205 X10 Y10
G0 F3000 X83.369 Y126.135
M204 S1800
M205 X8 Y8
G1 F1800 X64.209 Y106.975 E311.71575
M204 S3000
M205 X10 Y10
G0 F3000 X64.209 Y106.183
M204 S1800
M205 X8 Y8
G1 F1800 X84.161 Y126.135 E313.68656
M204 S3000
M205 X10 Y10
G0 F3000 X84.953 Y126.135
M204 S1800
M205 X8 Y8
G1 F1800 X64.209 Y105.391 E315.73561
M204 S3000
M205 X10 Y10
G0 F3000 X64.209 Y104.599
M204 S1800
M205 X8 Y8
G1 F1800 X85.745 Y126.135 E317.86288
M204 S3000
M205 X10 Y10
G0 F3000 X86.537 Y126.135
M204 S1800
M205 X8 Y8
G1 F1800 X64.209 Y103.807 E320.06838
M204 S3000
M205 X10 Y10
G0 F3000 X64.209 Y103.015
M204 S1800
M205 X8 Y8
