;FLAVOR:Marlin
;TIME:4394
;Filament used: 3.07707m
;Layer height: 0.2
;MINX:55.6
;MINY:66.219
;MINZ:0.2
;MAXX:154.4
;MAXY:134.746
;MAXZ:17
;Generated with Cura_SteamEngine 4.3.0
M140 S60
M105
M190 S60
M104 S200
M105
M109 S200
M82 ;absolute extrusion mode
G21 ;metric values
G90 ;absolute positioning
M82 ;set extruder to absolute mode
M107 ;start with the fan off
G28 X0 Y0 ;move X/Y to min endstops
G28 Z0 ;move Z to min endstops
G1 Z15.0 F100 ;move the platform down 15mm
G92 E0 ;zero the extruded length
G1 F200 E3 ;extrude 3mm of feed stock
G92 E0 ;zero the extruded length again
G1 F100
M117 Printing...
G5
G92 E0
G92 E0
G1 F2400 E-6
;LAYER_COUNT:85
;LAYER:0
M106 S255
M204 S3000
M205 X10 Y10
G1 F600 Z0.275
G0 F3000 X58.071 Y67.583 Z0.275
M204 S1800
M205 X8 Y8
;TYPE:SKIRT
G1 F600 Z0.2
G1 F2400 E0
G1 X58.659 Y67.175 E0.03333
G1 X59.288 Y66.835 E0.06662
G1 X59.952 Y66.568 E0.09994
G1 X60.641 Y66.376 E0.13325
G1 X61.347 Y66.262 E0.16655
G1 X61.83 Y66.231 E0.18909
G1 X62.151 Y66.222 E0.20404
G1 X62.33 Y66.219 E0.21238
G1 X147.293 Y66.219 E4.16861
G1 X147.385 Y66.22 E4.17289
G1 X148.083 Y66.23 E4.2054
G1 X148.796 Y66.28 E4.23868
G1 X149.5 Y66.409 E4.27201
G1 X150.184 Y66.617 E4.3053
G1 X150.841 Y66.899 E4.33859
G1 X151.463 Y67.253 E4.37191
G1 X152.041 Y67.674 E4.40521
G1 X152.569 Y68.157 E4.43853
G1 X153.039 Y68.695 E4.4718
G1 X153.447 Y69.283 E4.50512
G1 X153.786 Y69.913 E4.53843
G1 X154.053 Y70.576 E4.57172
G1 X154.244 Y71.266 E4.60505
G1 X154.357 Y71.972 E4.63835
G1 X154.388 Y72.449 E4.6606
G1 X154.397 Y72.769 E4.67551
G1 X154.4 Y72.949 E4.68389
G1 X154.4 Y127.689 E7.23282
G1 X154.391 Y128.416 E7.26667
G1 X154.342 Y129.13 E7.3
G1 X154.214 Y129.834 E7.33331
G1 X154.008 Y130.519 E7.36662
G1 X153.727 Y131.176 E7.3999
G1 X153.374 Y131.799 E7.43324
G1 X152.954 Y132.378 E7.46655
G1 X152.472 Y132.906 E7.49983
G1 X151.935 Y133.378 E7.53313
G1 X151.347 Y133.786 E7.56645
G1 X150.718 Y134.127 E7.59977
G1 X150.055 Y134.395 E7.63307
G1 X149.366 Y134.587 E7.66637
G1 X148.66 Y134.702 E7.69968
G1 X148.17 Y134.734 E7.72254
G1 X147.849 Y134.743 E7.7375
G1 X147.67 Y134.746 E7.74583
G1 X62.707 Y134.746 E11.70207
G1 X62.624 Y134.745 E11.70593
G1 X61.926 Y134.736 E11.73844
G1 X61.213 Y134.687 E11.77171
G1 X60.509 Y134.559 E11.80503
G1 X59.824 Y134.353 E11.83834
G1 X59.167 Y134.071 E11.87163
G1 X58.545 Y133.718 E11.90493
G1 X57.966 Y133.298 E11.93824
G1 X57.437 Y132.816 E11.97157
G1 X56.966 Y132.278 E12.00486
G1 X56.558 Y131.691 E12.03815
G1 X56.218 Y131.061 E12.07148
G1 X55.95 Y130.398 E12.10478
G1 X55.758 Y129.709 E12.13809
G1 X55.644 Y129.003 E12.17139
G1 X55.611 Y128.51 E12.19439
G1 X55.602 Y128.177 E12.20991
G1 X55.6 Y128.004 E12.21796
G1 X55.6 Y73.293 E14.76554
G1 X55.601 Y73.206 E14.76959
G1 X55.61 Y72.541 E14.80055
G1 X55.659 Y71.828 E14.83383
G1 X55.788 Y71.124 E14.86716
G1 X55.995 Y70.44 E14.90044
G1 X56.277 Y69.782 E14.93377
G1 X56.63 Y69.16 E14.96707
G1 X57.05 Y68.582 E15.00034
G1 X57.533 Y68.054 E15.03366
G1 X58.071 Y67.583 E15.06696
M204 S3000
M205 X10 Y10
G0 F3000 X58.612 Y67.878
M204 S1800
M205 X8 Y8
G1 F2400 X59.19 Y67.513 E15.09879
G1 X59.807 Y67.219 E15.13062
G1 X60.453 Y66.999 E15.16239
G1 X61.121 Y66.856 E15.1942
G1 X61.845 Y66.79 E15.22805
G1 X62.166 Y66.781 E15.24301
G1 X62.33 Y66.779 E15.25064
G1 X147.293 Y66.779 E19.20688
G1 X147.377 Y66.78 E19.21079
G1 X148.075 Y66.79 E19.24329
G1 X148.756 Y66.839 E19.27509
G1 X149.427 Y66.968 E19.3069
G1 X150.078 Y67.175 E19.33871
G1 X150.701 Y67.456 E19.37054
G1 X151.287 Y67.808 E19.40237
G1 X151.827 Y68.226 E19.43416
G1 X152.315 Y68.704 E19.46597
G1 X152.744 Y69.236 E19.4978
G1 X153.108 Y69.814 E19.5296
G1 X153.402 Y70.431 E19.56143
G1 X153.621 Y71.078 E19.59323
G1 X153.764 Y71.746 E19.62504
G1 X153.829 Y72.465 E19.65866
G1 X153.838 Y72.785 E19.67357
G1 X153.84 Y72.949 E19.6812
G1 X153.84 Y127.682 E22.2298
G1 X153.831 Y128.409 E22.26366
G1 X153.782 Y129.091 E22.29549
G1 X153.654 Y129.762 E22.3273
G1 X153.449 Y130.414 E22.35913
G1 X153.169 Y131.037 E22.39093
G1 X152.819 Y131.623 E22.42271
G1 X152.402 Y132.165 E22.45456
G1 X151.925 Y132.654 E22.48637
G1 X151.394 Y133.083 E22.51815
G1 X150.816 Y133.448 E22.54998
G1 X150.2 Y133.743 E22.58179
G1 X149.553 Y133.964 E22.61362
G1 X148.885 Y134.108 E22.64544
G1 X148.155 Y134.175 E22.67958
G1 X147.834 Y134.184 E22.69453
G1 X147.67 Y134.186 E22.70217
G1 X62.632 Y134.186 E26.66189
G1 X61.934 Y134.177 E26.6944
G1 X61.252 Y134.128 E26.72624
G1 X60.581 Y134 E26.75804
G1 X59.93 Y133.794 E26.78984
G1 X59.306 Y133.514 E26.82169
G1 X58.72 Y133.163 E26.85349
G1 X58.179 Y132.746 E26.8853
G1 X57.69 Y132.268 E26.91714
G1 X57.261 Y131.737 E26.94893
G1 X56.896 Y131.159 E26.98076
G1 X56.602 Y130.543 E27.01254
G1 X56.381 Y129.896 E27.04438
G1 X56.237 Y129.228 E27.0762
G1 X56.171 Y128.495 E27.11047
G1 X56.162 Y128.162 E27.12598
G1 X56.16 Y128.004 E27.13334
G1 X56.16 Y73.293 E29.68091
G1 X56.161 Y73.214 E29.68459
G1 X56.17 Y72.549 E29.71556
G1 X56.219 Y71.868 E29.74735
G1 X56.347 Y71.196 E29.7792
G1 X56.553 Y70.545 E29.811
G1 X56.834 Y69.922 E29.84282
G1 X57.185 Y69.336 E29.87463
G1 X57.603 Y68.795 E29.90646
G1 X58.08 Y68.307 E29.93824
G1 X58.612 Y67.878 E29.97006
M204 S3000
M205 X10 Y10
G0 F3000 X58.626 Y68.574
M204 S1800
M205 X8 Y8
G1 F2400 X59.149 Y68.19 E30.00027
G1 X59.716 Y67.872 E30.03054
G1 X60.317 Y67.626 E30.06078
G1 X60.944 Y67.456 E30.09103
G1 X61.861 Y67.35 E30.13402
G1 X62.182 Y67.341 E30.14897
G1 X62.33 Y67.339 E30.15586
G1 X147.293 Y67.339 E34.11209
G1 X147.369 Y67.34 E34.11563
G1 X148.067 Y67.35 E34.14814
G1 X148.714 Y67.399 E34.17835
G1 X149.351 Y67.527 E34.20861
G1 X149.967 Y67.733 E34.23885
G1 X150.554 Y68.013 E34.26914
G1 X151.101 Y68.362 E34.29935
G1 X151.602 Y68.776 E34.32961
G1 X152.047 Y69.249 E34.35985
G1 X152.432 Y69.773 E34.39013
G1 X152.749 Y70.34 E34.42038
G1 X152.994 Y70.941 E34.4506
G1 X153.163 Y71.568 E34.48084
G1 X153.269 Y72.481 E34.52363
G1 X153.278 Y72.801 E34.53854
G1 X153.28 Y72.949 E34.54543
G1 X153.28 Y127.675 E37.0937
G1 X153.271 Y128.402 E37.12756
G1 X153.223 Y129.05 E37.15782
G1 X153.095 Y129.687 E37.18807
G1 X152.891 Y130.304 E37.21833
G1 X152.612 Y130.891 E37.24859
G1 X152.264 Y131.439 E37.27882
G1 X151.851 Y131.94 E37.30905
G1 X151.379 Y132.387 E37.33932
G1 X150.856 Y132.772 E37.36956
G1 X150.29 Y133.09 E37.39979
G1 X149.688 Y133.337 E37.43009
G1 X149.062 Y133.507 E37.4603
G1 X148.139 Y133.615 E37.50357
G1 X147.818 Y133.624 E37.51852
G1 X147.67 Y133.626 E37.52542
G1 X62.639 Y133.626 E41.48482
G1 X61.941 Y133.617 E41.51732
G1 X61.293 Y133.568 E41.54758
G1 X60.656 Y133.441 E41.57782
G1 X60.04 Y133.236 E41.60805
G1 X59.453 Y132.957 E41.63832
G1 X58.905 Y132.608 E41.66857
G1 X58.404 Y132.195 E41.6988
G1 X57.957 Y131.723 E41.72907
G1 X57.572 Y131.2 E41.75931
G1 X57.254 Y130.633 E41.78959
G1 X57.008 Y130.032 E41.81982
G1 X56.838 Y129.405 E41.85007
G1 X56.731 Y128.48 E41.89343
G1 X56.722 Y128.147 E41.90894
G1 X56.72 Y128.004 E41.9156
G1 X56.72 Y73.222 E44.46648
G1 X56.729 Y72.557 E44.49745
G1 X56.778 Y71.909 E44.52771
G1 X56.906 Y71.272 E44.55797
G1 X57.111 Y70.655 E44.58824
G1 X57.391 Y70.069 E44.61848
G1 X57.74 Y69.521 E44.64873
G1 X58.154 Y69.02 E44.679
G1 X58.626 Y68.574 E44.70923
M204 S3000
M205 X10 Y10
G1 F2400 E38.70923
;MESH:screen_005.stl
G0 F3000 X62.854 Y71.954
G0 X62.854 Y73.473
G0 X82.949 Y81.713
M204 S1800
M205 X8 Y8
;TYPE:WALL-INNER
G1 F2400 E44.70923
G1 F1500 X82.949 Y81.993 E44.72227
G1 X82.953 Y84.968 E44.8608
G1 X82.942 Y88.493 E45.02494
G1 X82.941 Y112.498 E46.14271
G1 X82.954 Y116.015 E46.30648
G1 X82.949 Y118.998 E46.44538
G1 X82.949 Y119.278 E46.45842
G1 X83.229 Y119.278 E46.46686
G1 X86.259 Y119.274 E46.60795
G1 X91.867 Y119.285 E46.86908
G1 X120.591 Y119.286 E48.20659
G1 X124.205 Y119.273 E48.37488
G1 X127.234 Y119.278 E48.51592
G1 X127.514 Y119.278 E48.52896
G1 X127.514 Y118.998 E48.5374
G1 X127.51 Y116.023 E48.67593
G1 X127.521 Y112.499 E48.84002
G1 X127.522 Y88.494 E49.95779
G1 X127.509 Y84.976 E50.12161
G1 X127.514 Y81.993 E50.26051
G1 X127.514 Y81.713 E50.27355
G1 X127.234 Y81.713 E50.28199
G1 X124.207 Y81.717 E50.42293
G1 X120.592 Y81.706 E50.59127
G1 X89.872 Y81.705 E52.02172
G1 X86.257 Y81.718 E52.19005
G1 X83.229 Y81.713 E52.33104
G1 X82.949 Y81.713 E52.33948
M204 S3000
M205 X10 Y10
G0 F3000 X63.4 Y126.946
M204 S1800
M205 X8 Y8
G1 F1500 X63.4 Y74.019 E54.80399
G1 X146.6 Y74.019 E58.67813
G1 X146.6 Y126.946 E61.14263
G1 X63.4 Y126.946 E65.01677
M204 S3000
M205 X10 Y10
G0 F3000 X62.84 Y127.506
M204 S1800
M205 X8 Y8
G1 F1500 X62.84 Y73.459 E67.53343
G1 X147.16 Y73.459 E71.45972
G1 X147.16 Y127.506 E73.97637
G1 X62.84 Y127.506 E77.90267
M204 S3000
M205 X10 Y10
G0 F3000 X62.91 Y127.436
G0 X83.44 Y82.204
G0 X83.51 Y82.274
M204 S1800
M205 X8 Y8
G1 F1500 X83.51 Y82.554 E77.9157
G1 X83.513 Y84.97 E78.0282
G1 X83.502 Y88.494 E78.1923
G1 X83.501 Y112.497 E79.30998
G1 X83.514 Y116.016 E79.47384
G1 X83.51 Y118.437 E79.58657
G1 X83.51 Y118.717 E79.59961
G1 X83.79 Y118.717 E79.60805
G1 X86.259 Y118.714 E79.72301
G1 X91.868 Y118.725 E79.98419
G1 X120.59 Y118.726 E81.32161
G1 X124.204 Y118.713 E81.48989
G1 X126.673 Y118.717 E81.60486
G1 X126.953 Y118.717 E81.6179
G1 X126.953 Y118.437 E81.62634
G1 X126.95 Y116.021 E81.73884
G1 X126.961 Y112.498 E81.90288
G1 X126.962 Y88.495 E83.02056
G1 X126.949 Y84.975 E83.18447
G1 X126.953 Y82.554 E83.2972
G1 X126.953 Y82.274 E83.31024
G1 X126.673 Y82.274 E83.31868
G1 X124.206 Y82.277 E83.43355
G1 X120.591 Y82.266 E83.60188
G1 X89.873 Y82.265 E85.03224
G1 X86.258 Y82.278 E85.20057
G1 X83.79 Y82.274 E85.31549
G1 X83.51 Y82.274 E85.32393
M204 S3000
M205 X10 Y10
G0 F3000 X84.071 Y82.835
M204 S1800
M205 X8 Y8
;TYPE:WALL-OUTER
G1 F1500 X84.071 Y83.115 E85.33697
G1 X84.073 Y84.972 E85.42344
G1 X84.062 Y88.495 E85.58749
G1 X84.061 Y112.496 E86.70508
G1 X84.074 Y116.017 E86.86903
G1 X84.071 Y117.876 E86.95559
G1 X84.071 Y118.156 E86.96863
G1 X84.351 Y118.156 E86.97707
G1 X86.259 Y118.154 E87.06591
G1 X91.869 Y118.165 E87.32714
G1 X120.589 Y118.166 E88.66446
G1 X124.203 Y118.153 E88.83275
G1 X126.112 Y118.156 E88.92164
G1 X126.392 Y118.156 E88.93468
G1 X126.392 Y117.876 E88.94312
G1 X126.39 Y116.019 E89.02959
G1 X126.401 Y112.497 E89.19359
G1 X126.402 Y88.496 E90.31117
G1 X126.389 Y84.974 E90.47517
G1 X126.392 Y83.115 E90.56174
G1 X126.392 Y82.835 E90.57477
G1 X126.112 Y82.835 E90.58321
G1 X124.205 Y82.837 E90.67201
G1 X120.59 Y82.826 E90.84034
G1 X89.874 Y82.825 E92.27061
G1 X86.259 Y82.838 E92.43894
G1 X84.351 Y82.835 E92.52778
G1 X84.071 Y82.835 E92.53622
M204 S3000
M205 X10 Y10
G0 F3000 X84.071 Y83.035
G0 X83.41 Y83.035
G0 X62.91 Y127.436
G0 X62.28 Y128.066
M204 S1800
M205 X8 Y8
G1 F1500 X62.28 Y72.899 E95.10503
G1 X147.72 Y72.899 E99.08347
G1 X147.72 Y128.066 E101.65228
G1 X62.28 Y128.066 E105.63072
M204 S3000
M205 X10 Y10
G0 F3000 X62.28 Y127.866
G0 X62.91 Y127.436
G0 X63.95 Y126.396
M204 S1800
M205 X8 Y8
;TYPE:SKIN
G1 F1500 X63.95 Y74.569 E108.04401
G1 X146.05 Y74.569 E111.86693
G1 X146.05 Y126.396 E114.28021
G1 X63.95 Y126.396 E118.10313
M204 S3000
M205 X10 Y10
G0 F3000 X82.399 Y119.828
M204 S1800
M205 X8 Y8
G1 F1500 X86.259 Y119.824 E118.28287
G1 X91.867 Y119.835 E118.544
G1 X120.591 Y119.836 E119.88151
G1 X124.205 Y119.823 E120.04979
G1 X128.064 Y119.828 E120.22948
G1 X128.06 Y116.025 E120.40657
G1 X128.071 Y112.501 E120.57066
G1 X128.072 Y88.494 E121.68853
G1 X128.059 Y84.976 E121.85234
G1 X128.064 Y81.163 E122.02989
G1 X124.209 Y81.167 E122.2094
G1 X120.594 Y81.156 E122.37773
G1 X89.872 Y81.155 E123.80827
G1 X86.255 Y81.168 E123.9767
G1 X82.399 Y81.163 E124.15625
G1 X82.403 Y84.966 E124.33333
G1 X82.392 Y88.491 E124.49747
G1 X82.391 Y112.498 E125.61534
G1 X82.404 Y116.015 E125.7791
G1 X82.399 Y119.828 E125.95665
M204 S3000
M205 X10 Y10
G0 F3000 X64.362 Y126.135
M204 S1800
M205 X8 Y8
G1 F1500 X64.209 Y125.982 E125.96673
M204 S3000
M205 X10 Y10
G0 F3000 X64.209 Y125.19
M204 S1800
M205 X8 Y8
G1 F1500 X65.154 Y126.135 E126.02896
M204 S3000
M205 X10 Y10
G0 F3000 X65.946 Y126.135
M204 S1800
M205 X8 Y8
G1 F1500 X64.209 Y124.398 E126.14334
M204 S3000
M205 X10 Y10
G0 F3000 X64.209 Y123.606
M204 S1800
M205 X8 Y8
G1 F1500 X66.738 Y126.135 E126.30988
M204 S3000
M205 X10 Y10
G0 F3000 X67.53 Y126.135
M204 S1800
M205 X8 Y8
G1 F1500 X64.209 Y122.814 E126.52858
M204 S3000
M205 X10 Y10
G0 F3000 X64.209 Y122.022
M204 S1800
M205 X8 Y8
G1 F1500 X68.322 Y126.135 E126.79942
M204 S3000
M205 X10 Y10
G0 F3000 X69.114 Y126.135
M204 S1800
M205 X8 Y8
G1 F1500 X64.209 Y121.23 E127.12243
M204 S3000
M205 X10 Y10
G0 F3000 X64.209 Y120.438
M204 S1800
M205 X8 Y8
G1 F1500 X69.905 Y126.135 E127.49755
M204 S3000
M205 X10 Y10
G0 F3000 X70.697 Y126.135
M204 S1800
M205 X8 Y8
G1 F1500 X64.209 Y119.646 E127.92483
M204 S3000
M205 X10 Y10
G0 F3000 X64.209 Y118.854
M204 S1800
M205 X8 Y8
G1 F1500 X71.489 Y126.135 E128.40426
M204 S3000
M205 X10 Y10
G0 F3000 X72.281 Y126.135
M204 S1800
M205 X8 Y8
G1 F1500 X64.209 Y118.062 E128.93585
M204 S3000
M205 X10 Y10
G0 F3000 X64.209 Y117.27
M204 S1800
M205 X8 Y8
G1 F1500 X73.073 Y126.135 E129.51959
M204 S3000
M205 X10 Y10
G0 F3000 X73.865 Y126.135
M204 S1800
M205 X8 Y8
G1 F1500 X64.209 Y116.478 E130.15549
M204 S3000
M205 X10 Y10
G0 F3000 X64.209 Y115.686
M204 S1800
M205 X8 Y8
G1 F1500 X74.657 Y126.135 E130.84354
M204 S3000
M205 X10 Y10
G0 F3000 X75.449 Y126.135
M204 S1800
M205 X8 Y8
G1 F1500 X64.209 Y114.894 E131.58375
M204 S3000
M205 X10 Y10
G0 F3000 X64.209 Y114.102
M204 S1800
M205 X8 Y8
G1 F1500 X76.241 Y126.135 E132.37611
M204 S3000
M205 X10 Y10
G0 F3000 X77.033 Y126.135
M204 S1800
M205 X8 Y8
G1 F1500 X64.209 Y113.311 E133.22059
M204 S3000
M205 X10 Y10
G0 F3000 X64.209 Y112.519
M204 S1800
M205 X8 Y8
G1 F1500 X77.825 Y126.135 E134.11723
M204 S3000
M205 X10 Y10
G0 F3000 X78.617 Y126.135
M204 S1800
M205 X8 Y8
G1 F1500 X64.209 Y111.727 E135.06602
M204 S3000
M205 X10 Y10
G0 F3000 X64.209 Y110.935
M204 S1800
M205 X8 Y8
G1 F1500 X79.409 Y126.135 E136.06696
M204 S3000
M205 X10 Y10
G0 F3000 X80.201 Y126.135
M204 S1800
M205 X8 Y8
G1 F1500 X64.209 Y110.143 E137.12007
M204 S3000
M205 X10 Y10
G0 F3000 X64.209 Y109.351
M204 S1800
M205 X8 Y8
G1 F1500 X80.993 Y126.135 E138.22532
M204 S3000
M205 X10 Y10
G0 F3000 X81.785 Y126.135
M204 S1800
M205 X8 Y8
G1 F1500 X64.209 Y108.559 E139.38273
M204 S3000
M205 X10 Y10
G0 F3000 X64.209 Y107.767
M204 S1800
M205 X8 Y8
G1 F1500 X82.577 Y126.135 E140.59229
M204 S3000
M205 X10 Y10
G0 F3000 X83.369 Y126.135
M204 S1800
M205 X8 Y8
G1 F1500 X64.209 Y106.975 E141.85401
M204 S3000
M205 X10 Y10
G0 F3000 X64.209 Y106.183
M204 S1800
M205 X8 Y8
G1 F1500 X84.161 Y126.135 E143.16789
M204 S3000
M205 X10 Y10
G0 F3000 X84.953 Y126.135
M204 S1800
M205 X8 Y8
G1 F1500 X64.209 Y105.391 E144.53391
M204 S3000
M205 X10 Y10
G0 F3000 X64.209 Y104.599
M204 S1800
M205 X8 Y8
G1 F1500 X85.745 Y126.135 E145.9521
M204 S3000
M205 X10 Y10
G0 F3000 X86.537 Y126.135
M204 S1800
M205 X8 Y8
G1 F1500 X64.209 Y103.807 E147.42243
M204 S3000
M205 X10 Y10
G0 F3000 X64.209 Y103.015
M204 S1800
M205 X8 Y8
G1 F1500 X87.329 Y126.135 E148.94492
M204 S3000
M205 X10 Y10
G0 F3000 X88.121 Y126.135
M204 S1800
M205 X8 Y8
G1 F1500 X64.209 Y102.223 E150.51957
M204 S3000
M205 X10 Y10
G0 F3000 X64.209 Y101.431
M204 S1800
M205 X8 Y8
G1 F1500 X82.141 Y119.363 E151.70042
M204 S3000
M205 X10 Y10
G0 F3000 X82.141 Y118.571
M204 S1800
M205 X8 Y8
G1 F1500 X64.209 Y100.639 E152.88128
M204 S3000
M205 X10 Y10
G0 F3000 X64.209 Y99.847
M204 S1800
M205 X8 Y8
G1 F1500 X82.142 Y117.78 E154.0622
M204 S3000
M205 X10 Y10
G0 F3000 X82.143 Y116.989
M204 S1800
M205 X8 Y8
G1 F1500 X64.209 Y99.055 E155.24318
M204 S3000
M205 X10 Y10
G0 F3000 X64.209 Y98.263
M204 S1800
M205 X8 Y8
G1 F1500 X82.143 Y116.198 E156.4242
M204 S3000
M205 X10 Y10
G0 F3000 X82.141 Y115.404
M204 S1800
M205 X8 Y8
G1 F1500 X64.209 Y97.471 E157.60508
M204 S3000
M205 X10 Y10
G0 F3000 X64.209 Y96.679
M204 S1800
M205 X8 Y8
G1 F1500 X82.138 Y114.609 E158.78577
M204 S3000
M205 X10 Y10
G0 F3000 X82.136 Y113.814
M204 S1800
M205 X8 Y8
G1 F1500 X64.209 Y95.887 E159.96629
M204 S3000
M205 X10 Y10
G0 F3000 X64.209 Y95.095
M204 S1800
M205 X8 Y8
G1 F1500 X82.133 Y113.019 E161.14662
M204 S3000
M205 X10 Y10
G0 F3000 X82.131 Y112.226
M204 S1800
M205 X8 Y8
